X: 1
T: Merrily Kissed The Quaker
R: slide
M: 12/8
L: 1/8
K: Gmaj
|:D|GAB G2B c2A BGE|GAB DEG A2A AGE|
GAB GAB cBA BGE|GAB AGF G3 G2:|
|:A|BGG AGG BGG AGG|GAB DEG A2A AGA|
BGG AGG BGG AGG|GAB AGF G3 G2:|
|:d|g2g a2a bag edB|g2g gab a2a agf|
g2g f2f ege dBA|GAB AGF G3 G2:|


Tune 70	Setting 12535

